img/social-twitter.svg

<svg width="18" height="15" viewBox="0 0 18 15" fill="none" xmlns="http://www.w3.org/2000/svg">
<g clip-path="url(#clip0_24196_690)">
<path d="M11.6 0.200056C13.4 -0.299944 14.8 0.500056 15.4 1.40006C16.1 1.20006 16.8 0.900056 17.5 0.700056C17.5 1.60006 16.9 2.20006 16.6 2.50006C17.3 2.60006 18 1.90006 18 1.90006C17.8 2.90006 16.9 3.70006 16.3 3.90006C16.1 10.7001 13 15.1001 5.7 15.0001C5.1 15.0001 5.8 15.0001 5.2 15.0001C4.8 15.0001 0.8 14.5001 0 13.1001C2.4 13.3001 4.1 12.7001 5 11.9001C4 11.6001 2.1 11.5001 1.8 9.00006C2.2 9.10006 2.4 9.20006 3.1 9.10006C1.8 8.30006 0.4 7.50006 0.5 5.30006C0.8 5.60006 1.6 5.80006 1.9 5.80006C1.1 5.60006 -0.2 2.50006 0.9 0.900056C2.8 2.80006 4.9 4.50006 8.5 4.70006C8.7 2.30006 9.7 0.800056 11.6 0.200056Z" fill="#83B3D3"/>
</g>
<defs>
<clipPath id="clip0_24196_690">
<rect width="18" height="15" fill="white"/>
</clipPath>
</defs>
</svg>

<svg width="18" height="15" fill="none" xmlns="http://www.w3.org/2000/svg"><g clip-path="url(#a)"><path d="M11.6.2c1.8-.5 3.2.3 3.8 1.2.7-.2 1.4-.5 2.1-.7 0 .9-.6 1.5-.9 1.8.7.1 1.4-.6 1.4-.6-.2 1-1.1 1.8-1.7 2C16.1 10.7 13 15.1 5.7 15h-.5c-.4 0-4.4-.5-5.2-1.9 2.4.2 4.1-.4 5-1.2-1-.3-2.9-.4-3.2-2.9.4.1.6.2 1.3.1C1.8 8.3.4 7.5.5 5.3c.3.3 1.1.5 1.4.5C1.1 5.6-.2 2.5.9.9c1.9 1.9 4 3.6 7.6 3.8C8.7 2.3 9.7.8 11.6.2Z" fill="#83B3D3"/></g><defs><clipPath id="a"><path fill="#fff" d="M0 0h18v15H0z"/></clipPath></defs></svg>
